X: 1505
T: the New Potatoes
T: na potataoi nua.d.
R: reel
B: O'Neill's 1850 "Music of Ireland, #1505
O: O'Reilly
Z: transcribed by John B. Walsh, walsh@math.ubc.ca 8/23/96
Z: Compacted via repeats and multiple endings [JC]
M: C|
L: 1/8
K: Em
|: (EB)(BA) FAFA | (EB)(BA) FDE2 | (EB)(BA) FAFA | (BA)(dA) FDE2 H :: (Be)(eg) fded |
| (Be)(eg) fdd2 |1 (Be)(eg) fded | BAdA FDE2 :|2 bgaf gfed | BAdA FDD"_D.C."F |]
